X:370
T:Up against the Buachalawns
Z: id:dc-reel-218
M:C
L:1/8
K:D Major
A,|D2FA D2FA|dfed cAAc|dBcA BdAF|GBAF GFEF|!
D2FA D2FA|dfed cAAc|dBcA BdAF|GBAG FDD:|!
f|aff2 dff2|gfed cdeg|aff2 dff2|g2eg fddf|!
aff2 dff2|gfed cdeg|afge fdAF|GBAG FDD:|!